twotone/svg/explore_off.svg

<svg xmlns="http://www.w3.org/2000/svg" width="24" height="24"><path fill="none" d="M0 0h24v24H0V0z"/><g fill="currentColor"><path opacity=".3" d="M12 20c1.48 0 2.86-.41 4.06-1.12l-3.98-3.98-5.58 2.6 2.59-5.58-3.97-3.98A7.932 7.932 0 0 0 4 12c0 4.41 3.59 8 8 8zM12 4c-1.48 0-2.86.41-4.06 1.12l3.98 3.98 5.58-2.6-2.59 5.58 3.98 3.98c.7-1.2 1.11-2.58 1.11-4.06 0-4.41-3.59-8-8-8z"/><path d="M17.5 6.5l-5.58 2.59 2.99 2.99zM2.1 4.93l1.56 1.56A9.91 9.91 0 0 0 2 12c0 5.52 4.48 10 10 10 2.04 0 3.93-.61 5.51-1.66l1.56 1.56 1.41-1.41L3.51 3.51 2.1 4.93zm3.02 3.01l3.98 3.98-2.6 5.58 5.58-2.59 3.98 3.98c-1.2.7-2.58 1.11-4.06 1.11-4.41 0-8-3.59-8-8 0-1.48.41-2.86 1.12-4.06z"/><path d="M12 4c4.41 0 8 3.59 8 8 0 1.48-.41 2.86-1.12 4.06l1.46 1.46A9.967 9.967 0 0 0 22 12c0-5.52-4.48-10-10-10-2.04 0-3.93.61-5.51 1.66l1.46 1.46A7.869 7.869 0 0 1 12 4z"/></g></svg>

<?xml version="1.0" encoding="utf-8"?>
<!-- Generator: Adobe Illustrator 19.1.0, SVG Export Plug-In . SVG Version: 6.00 Build 0)  -->
<svg version="1.1" xmlns="http://www.w3.org/2000/svg" xmlns:xlink="http://www.w3.org/1999/xlink" x="0px" y="0px" width="24px"
	 height="24px" viewBox="0 0 24 24" enable-background="new 0 0 24 24" xml:space="preserve">
<g id="Header_x2F_BG" display="none">
	<rect x="-138" y="-358" display="inline" fill="#F1F1F2" width="520" height="520"/>
</g>
<g id="Bounding_Boxes">
	<g id="ui_x5F_spec_x5F_header_copy_3">
	</g>
	<path fill="none" d="M0,0h24v24H0V0z"/>
</g>
<g id="Rounded" display="none">
	<g id="ui_x5F_spec_x5F_header_copy_5" display="inline">
	</g>
	<path display="inline" d="M18,6l-2.91,6.26l5.25,5.25C21.39,15.93,22,14.04,22,12c0-5.52-4.48-10-10-10C9.96,2,8.07,2.61,6.49,3.66
		l5.25,5.25L18,6z M2.81,5.64l0.85,0.85c-1.37,2.07-2,4.68-1.48,7.45c0.75,3.95,3.92,7.13,7.88,7.88c2.77,0.52,5.38-0.1,7.45-1.48
		l0.85,0.85c0.39,0.39,1.02,0.39,1.41,0l0,0c0.39-0.39,0.39-1.02,0-1.41L4.22,4.22c-0.39-0.39-1.02-0.39-1.41,0l0,0
		C2.42,4.61,2.42,5.25,2.81,5.64z M8.91,11.74l3.35,3.35L6,18L8.91,11.74z"/>
</g>
<g id="Sharp" display="none">
	<g id="ui_x5F_spec_x5F_header_copy_4" display="inline">
	</g>
	<path display="inline" d="M18,6l-2.91,6.26l5.25,5.25C21.39,15.93,22,14.04,22,12c0-5.52-4.48-10-10-10C9.96,2,8.07,2.61,6.49,3.66
		l5.25,5.25L18,6z M2.1,4.93l1.56,1.56C2.61,8.07,2,9.96,2,12c0,5.52,4.48,10,10,10c2.04,0,3.93-0.61,5.51-1.66l1.56,1.56l1.41-1.41
		L3.51,3.51L2.1,4.93z M8.91,11.74l3.35,3.35L6,18L8.91,11.74z"/>
</g>
<g id="Outline" display="none">
	<g id="ui_x5F_spec_x5F_header" display="inline">
	</g>
	<path display="inline" d="M12,4c4.41,0,8,3.59,8,8c0,1.48-0.41,2.86-1.12,4.06l1.46,1.46C21.39,15.93,22,14.04,22,12
		c0-5.52-4.48-10-10-10C9.96,2,8.07,2.61,6.49,3.66l1.46,1.46C9.14,4.41,10.52,4,12,4z M14.91,12.08L17.5,6.5l-5.58,2.59
		L14.91,12.08z M2.1,4.93l1.56,1.56C2.61,8.07,2,9.96,2,12c0,5.52,4.48,10,10,10c2.04,0,3.93-0.61,5.51-1.66l1.56,1.56l1.41-1.41
		L3.51,3.51L2.1,4.93z M5.12,7.94l3.98,3.98L6.5,17.5l5.58-2.59l3.98,3.98C14.86,19.59,13.48,20,12,20c-4.41,0-8-3.59-8-8
		C4,10.52,4.41,9.14,5.12,7.94z"/>
</g>
<g id="Duotone" fill="currentColor">
	<g id="ui_x5F_spec_x5F_header_copy_2">
	</g>
	<g>
		<path opacity="0.3" d="M12,20c1.48,0,2.86-0.41,4.06-1.12l-3.98-3.98L6.5,17.5l2.59-5.58L5.12,7.94C4.41,9.14,4,10.52,4,12
			C4,16.41,7.59,20,12,20z"/>
		<path opacity="0.3" d="M12,4c-1.48,0-2.86,0.41-4.06,1.12l3.98,3.98L17.5,6.5l-2.59,5.58l3.98,3.98C19.59,14.86,20,13.48,20,12
			C20,7.59,16.41,4,12,4z"/>
		<polygon points="17.5,6.5 11.92,9.09 14.91,12.08 		"/>
		<path d="M2.1,4.93l1.56,1.56C2.61,8.07,2,9.96,2,12c0,5.52,4.48,10,10,10c2.04,0,3.93-0.61,5.51-1.66l1.56,1.56l1.41-1.41
			L3.51,3.51L2.1,4.93z M5.12,7.94l3.98,3.98L6.5,17.5l5.58-2.59l3.98,3.98C14.86,19.59,13.48,20,12,20c-4.41,0-8-3.59-8-8
			C4,10.52,4.41,9.14,5.12,7.94z"/>
		<path d="M12,4c4.41,0,8,3.59,8,8c0,1.48-0.41,2.86-1.12,4.06l1.46,1.46C21.39,15.93,22,14.04,22,12c0-5.52-4.48-10-10-10
			C9.96,2,8.07,2.61,6.49,3.66l1.46,1.46C9.14,4.41,10.52,4,12,4z"/>
	</g>
</g>
<g id="Fill" display="none">
	<g id="ui_x5F_spec_x5F_header_copy" display="inline">
	</g>
	<path display="inline" d="M18,6l-2.91,6.26l5.25,5.25C21.39,15.93,22,14.04,22,12c0-5.52-4.48-10-10-10C9.96,2,8.07,2.61,6.49,3.66
		l5.25,5.25L18,6z M2.1,4.93l1.56,1.56C2.61,8.07,2,9.96,2,12c0,5.52,4.48,10,10,10c2.04,0,3.93-0.61,5.51-1.66l1.56,1.56l1.41-1.41
		L3.51,3.51L2.1,4.93z M8.91,11.74l3.35,3.35L6,18L8.91,11.74z"/>
</g>
<g id="nyt_x5F_exporter_x5F_info" display="none">
</g>
</svg>
